Simply-Black-Circles/symbolic/panel/media-playlist-repeat-rtl-symbolic.svg

<svg xmlns="http://www.w3.org/2000/svg" width="24" height="24"><path d="M16.58 4.2v2.23h2.22c1.93.01 3.07 1.53 3.22 3.05a9.75 9.75 0 0 1-.01.99l-.02.14-.07.54-.03.32c-.01.04-.03.09-.03.14l-.13.58c-.03.08-.04.17-.06.26l-.04.1-.2.62-.08.23-.04.1-.26.57-.1.24-.06.09c-.1.2-.22.39-.33.58l-.12.2-.04.06-.37.52-.17.24-.06.06-.38.43-.22.26-.05.05-.4.37-.29.27-.05.03a9.99 9.99 0 0 1-12.82 0l-.05-.03-.29-.27-.4-.37-.05-.05-.22-.26-.38-.43-.06-.06c-.06-.08-.1-.16-.17-.24l-.37-.52-.04-.06-.12-.2c-.11-.2-.23-.38-.33-.58l-.05-.09-.11-.24a9.96 9.96 0 0 1-.26-.58c0-.03-.03-.06-.04-.1l-.07-.22c-.08-.2-.15-.4-.21-.62l-.04-.1c-.02-.09-.03-.18-.06-.26l-.13-.58c0-.05-.02-.1-.03-.14-.02-.1-.02-.21-.03-.32L2 10.61l-.02-.14a10.04 10.04 0 0 1-.01-.99c.15-1.52 1.29-3.04 3.22-3.05h5.54v2.22H5.2c-.62 0-1.11.5-1.11 1.11 0 2.16.87 4.12 2.28 5.55l.09.1.23.2.34.3.29.22.33.24.29.17c.14.08.27.17.41.24l.21.1.51.23.22.08.51.17.28.07c.16.04.31.08.47.1a7.93 7.93 0 0 0 2.9 0c.16-.02.31-.06.47-.1l.28-.07.5-.17.23-.08.5-.23.22-.1c.14-.07.27-.16.41-.24l.29-.17.33-.24.3-.22.33-.3.23-.2.09-.1a7.89 7.89 0 0 0 2.28-5.55c0-.62-.5-1.11-1.1-1.11h-2.23v2.22l-4.44-3.33z" fill="gray" stroke-width="1.11"/></svg>

<?xml version="1.0" encoding="UTF-8" standalone="no"?>
<svg
   xmlns:dc="http://purl.org/dc/elements/1.1/"
   xmlns:cc="http://creativecommons.org/ns#"
   xmlns:rdf="http://www.w3.org/1999/02/22-rdf-syntax-ns#"
   xmlns:svg="http://www.w3.org/2000/svg"
   xmlns="http://www.w3.org/2000/svg"
   xmlns:sodipodi="http://sodipodi.sourceforge.net/DTD/sodipodi-0.dtd"
   xmlns:inkscape="http://www.inkscape.org/namespaces/inkscape"
   width="24"
   height="24"
   version="1.1"
   id="svg4"
   sodipodi:docname="media-playlist-repeat-rtl-symbolic.svg"
   inkscape:version="0.92.4 (5da689c313, 2019-01-14)">
  <metadata
     id="metadata10">
    <rdf:RDF>
      <cc:Work
         rdf:about="">
        <dc:format>image/svg+xml</dc:format>
        <dc:type
           rdf:resource="http://purl.org/dc/dcmitype/StillImage" />
        <dc:title></dc:title>
      </cc:Work>
    </rdf:RDF>
  </metadata>
  <defs
     id="defs8" />
  <sodipodi:namedview
     pagecolor="#ffffff"
     bordercolor="#666666"
     borderopacity="1"
     objecttolerance="10"
     gridtolerance="10"
     guidetolerance="10"
     inkscape:pageopacity="0"
     inkscape:pageshadow="2"
     inkscape:window-width="1085"
     inkscape:window-height="480"
     id="namedview6"
     showgrid="false"
     inkscape:zoom="9.8333333"
     inkscape:cx="1.0677966"
     inkscape:cy="12"
     inkscape:window-x="0"
     inkscape:window-y="25"
     inkscape:window-maximized="0"
     inkscape:current-layer="svg4" />
  <path
     d="m 16.58,4.2 v 2.23 h 2.22 c 1.93,0.01 3.07,1.53 3.22,3.05 a 9.75,9.75 0 0 1 -0.01,0.99 l -0.02,0.14 -0.07,0.54 -0.03,0.32 c -0.01,0.04 -0.03,0.09 -0.03,0.14 l -0.13,0.58 c -0.03,0.08 -0.04,0.17 -0.06,0.26 l -0.04,0.1 -0.2,0.62 -0.08,0.23 -0.04,0.1 -0.26,0.57 -0.1,0.24 -0.06,0.09 c -0.1,0.2 -0.22,0.39 -0.33,0.58 l -0.12,0.2 -0.04,0.06 -0.37,0.52 -0.17,0.24 -0.06,0.06 -0.38,0.43 -0.22,0.26 -0.05,0.05 -0.4,0.37 -0.29,0.27 -0.05,0.03 a 9.99,9.99 0 0 1 -12.82,0 L 5.54,17.44 5.25,17.17 4.85,16.8 4.8,16.75 4.58,16.49 4.2,16.06 4.14,16 C 4.08,15.92 4.04,15.84 3.97,15.76 L 3.6,15.24 3.56,15.18 3.44,14.98 C 3.33,14.78 3.21,14.6 3.11,14.4 L 3.06,14.31 2.95,14.07 A 9.96,9.96 0 0 1 2.69,13.49 c 0,-0.03 -0.03,-0.06 -0.04,-0.1 L 2.58,13.17 C 2.5,12.97 2.43,12.77 2.37,12.55 L 2.33,12.45 C 2.31,12.36 2.3,12.27 2.27,12.19 L 2.14,11.61 C 2.14,11.56 2.12,11.51 2.11,11.47 2.09,11.37 2.09,11.26 2.08,11.15 L 2,10.61 1.98,10.47 A 10.04,10.04 0 0 1 1.97,9.48 C 2.12,7.96 3.26,6.44 5.19,6.43 h 5.54 V 8.65 H 5.2 c -0.62,0 -1.11,0.5 -1.11,1.11 0,2.16 0.87,4.12 2.28,5.55 l 0.09,0.1 0.23,0.2 0.34,0.3 0.29,0.22 0.33,0.24 0.29,0.17 c 0.14,0.08 0.27,0.17 0.41,0.24 l 0.21,0.1 0.51,0.23 0.22,0.08 0.51,0.17 0.28,0.07 c 0.16,0.04 0.31,0.08 0.47,0.1 a 7.93,7.93 0 0 0 2.9,0 c 0.16,-0.02 0.31,-0.06 0.47,-0.1 l 0.28,-0.07 0.5,-0.17 0.23,-0.08 0.5,-0.23 0.22,-0.1 c 0.14,-0.07 0.27,-0.16 0.41,-0.24 l 0.29,-0.17 0.33,-0.24 0.3,-0.22 0.33,-0.3 0.23,-0.2 0.09,-0.1 a 7.89,7.89 0 0 0 2.28,-5.55 c 0,-0.62 -0.5,-1.11 -1.1,-1.11 h -2.23 v 2.22 L 12.14,7.54 Z"
     id="path2"
     inkscape:connector-curvature="0"
     style="fill:#808080;stroke-width:1.11000001" />
</svg>
